rospo-icon-theme-classic-common/24x24/apps/com.github.allen-b1.news.svg

<svg height="24" width="24" xmlns="http://www.w3.org/2000/svg"><rect height="20" opacity=".2" rx="1" width="20" x="2" y="2.5"/><rect fill="#c93e5f" height="20" rx="1" width="20" x="2" y="2"/><g fill="#fff"><path d="m3 2c-.554 0-1 .446-1 1v .5c0-.554.446-1 1-1h18c .554 0 1 .446 1 1v-.5c0-.554-.446-1-1-1z" opacity=".2"/><path d="m5 11.002h.67c4.05 0 7.33 3.278 7.33 7.328v.672h-.67c-.36 0-.66-.305-.66-.672 0-3.314-2.68-6-6-6-.36 0-.67-.289-.67-.656z"/><path d="m5 13.674h.67c2.58 0 4.66 2.079 4.66 4.656v.672h-.66c-.36 0-.67-.305-.67-.672 0-1.841-1.49-3.328-3.33-3.328-.36 0-.67-.305-.67-.672z"/><path d="m6.33 16.33c.74 0 1.34.607 1.34 1.344 0 .736-.61 1.328-1.34 1.328-.74 0-1.33-.592-1.33-1.328 0-.737.6-1.344 1.33-1.344z"/></g></svg>

<svg xmlns="http://www.w3.org/2000/svg" width="24" height="24" version="1">
 <rect style="opacity:0.2" width="20" height="20" x="2" y="2.5" rx="1" ry="1"/>
 <rect style="fill:#c93e5f" width="20" height="20" x="2" y="2" rx="1" ry="1"/>
 <path style="fill:#ffffff;opacity:0.2" d="M 3 2 C 2.446 2 2 2.446 2 3 L 2 3.5 C 2 2.946 2.446 2.5 3 2.5 L 21 2.5 C 21.554 2.5 22 2.946 22 3.5 L 22 3 C 22 2.446 21.554 2 21 2 L 3 2 z"/>
 <g>
  <path d="M 5,11.002 H 5.67 C 9.72,11.002 13,14.28 13,18.33 V 19.002 H 12.33 C 11.97,19.002 11.67,18.697 11.67,18.33 11.67,15.016 8.99,12.33 5.67,12.33 5.31,12.33 5,12.041 5,11.674 Z" style="fill:#ffffff"/>
  <path d="M 5,13.674 H 5.67 C 8.25,13.674 10.33,15.753 10.33,18.33 V 19.002 H 9.67 C 9.31,19.002 9,18.697 9,18.33 9,16.489 7.51,15.002 5.67,15.002 5.31,15.002 5,14.697 5,14.33 Z" style="fill:#ffffff"/>
  <path d="M 6.33,16.33 C 7.07,16.33 7.67,16.937 7.67,17.674 7.67,18.41 7.06,19.002 6.33,19.002 5.59,19.002 5,18.41 5,17.674 5,16.937 5.6,16.33 6.33,16.33 Z" style="fill:#ffffff"/>
 </g>
</svg>
